X:5950
T:Gan Ainm
R:jig
S:
H:
N:
D:Milltown 1999 
Z:Adrian Scahill
M:6/8
L:1/8
K:D
d2B AFA|BdB AFA|dcd e3|fdf ecA|\
d2B AFA|BdB AFA|dcd e3|fdc d3:||\
f3 afa|bd'b afe|f3 def|edB dBA|1 f3 afa|\ 
bd'b afe|f3 def|edc d3:|2 d2B AFA|BdB AFA|dcd e3|fdc d3||\


